contributed-vectors/wilma.svg

<svg xmlns="http://www.w3.org/2000/svg" width="192" height="192" fill="none"><g clip-path="url(#a)"><path fill="#9ABEFF" fill-rule="evenodd" d="M29 19h133c5.52 0 10 4.48 10 10v133c0 5.52-4.48 10-10 10H29c-5.52 0-10-4.48-10-10V29c0-5.52 4.48-10 10-10Z" clip-rule="evenodd"/><path fill="#fff" d="M114.57 77.21c1.29-1.93 2.19-4.13 2.53-6.52.63-4.39-.83-8.19-2.17-10.61-.29-.52-.79-.9-1.37-1.03-.58-.12-1.19 0-1.67.35-3.9 2.84-7.98 5.25-12.14 7.19-2.76 1.29-6.01 2.58-8.38 3.52-.99.39-1.82.72-2.4.97-.2.08-.47.2-.77.37 0 0-.01 0-.02.01-13.44 3.27-23.41 15.38-23.41 29.84.01 16.94 13.76 30.7 30.73 30.7 16.96 0 30.72-13.76 30.72-30.72 0-9.76-4.56-18.45-11.65-24.07Zm-13.06-6.86c3.67-1.7 7.28-3.77 10.77-6.14.61 1.67 1.03 3.7.71 5.89-.25 1.73-.9 3.33-1.85 4.76-3.3-1.96-6.99-3.32-10.93-3.92l1.3-.59Zm-32.57 30.93c0-12.43 8.57-22.89 20.11-25.77.12-.03.25-.07.37-.09 1.96-.46 3.99-.71 6.08-.71 4.65 0 9.02 1.2 12.83 3.3-2.59 2.22-5.88 3.64-8.89 3.98-13.26.05-23.98 10.81-23.98 24.07 0 8.43 4.34 15.86 10.91 20.15-10.17-3.72-17.43-13.49-17.43-24.93Zm15.24-7.88c.02-.02.03-.04.05-.07a14.08 14.08 0 0 1 7.08-5.4c.01 0 .01-.01.02-.01 1.43-.49 2.96-.76 4.55-.76 7.78 0 14.11 6.33 14.11 14.11 0 7.78-6.34 14.13-14.12 14.13-7.79 0-14.11-6.33-14.11-14.11 0-2.92.89-5.63 2.42-7.89Zm29.08 27.62c-.05.05-.1.09-.15.14-.04.03-.09.08-.17.14-.08.07-.19.17-.32.28l-.1.07c-1.69 1.34-6.5 4.65-12.99 4.34-11.14-.51-19.93-11.28-19.93-19.92 0-.43.02-.86.04-1.29 1.6 7.49 8.26 13.1 16.23 13.1 9.16 0 16.6-7.43 16.6-16.6 0-7.06-4.41-13.09-10.63-15.49 3.57-.8 7.2-2.68 10.04-5.4 6.19 4.86 10.18 12.42 10.18 20.89 0 1.64-.15 3.24-.43 4.79-1.07 5.89-4.1 11.1-8.37 14.95Z"/></g><defs><clipPath id="a"><path fill="#fff" d="M0 0h192v192H0z"/></clipPath></defs></svg>

<svg width="192" height="192" viewBox="0 0 192 192" fill="none" xmlns="http://www.w3.org/2000/svg">
<g clip-path="url(#clip0)">
<path fill-rule="evenodd" clip-rule="evenodd" d="M29 19H162C167.52 19 172 23.48 172 29V162C172 167.52 167.52 172 162 172H29C23.48 172 19 167.52 19 162V29C19 23.48 23.48 19 29 19Z" fill="#9ABEFF"/>
<path d="M114.57 77.21C115.86 75.28 116.76 73.08 117.1 70.69C117.73 66.3 116.27 62.5 114.93 60.08C114.64 59.56 114.14 59.18 113.56 59.05C112.98 58.93 112.37 59.05 111.89 59.4C107.99 62.24 103.91 64.65 99.75 66.59C96.99 67.88 93.74 69.17 91.37 70.11C90.38 70.5 89.55 70.83 88.97 71.08C88.77 71.16 88.5 71.28 88.2 71.45C88.2 71.45 88.19 71.45 88.18 71.46C74.74 74.73 64.77 86.84 64.77 101.3C64.78 118.24 78.53 132 95.5 132C112.46 132 126.22 118.24 126.22 101.28C126.22 91.52 121.66 82.83 114.57 77.21ZM101.51 70.35C105.18 68.65 108.79 66.58 112.28 64.21C112.89 65.88 113.31 67.91 112.99 70.1C112.74 71.83 112.09 73.43 111.14 74.86C107.84 72.9 104.15 71.54 100.21 70.94C100.65 70.74 101.09 70.54 101.51 70.35ZM68.94 101.28C68.94 88.85 77.51 78.39 89.05 75.51C89.17 75.48 89.3 75.44 89.42 75.42C91.38 74.96 93.41 74.71 95.5 74.71C100.15 74.71 104.52 75.91 108.33 78.01C105.74 80.23 102.45 81.65 99.44 81.99C86.18 82.04 75.46 92.8 75.46 106.06C75.46 114.49 79.8 121.92 86.37 126.21C76.2 122.49 68.94 112.72 68.94 101.28ZM84.18 93.4C84.2 93.38 84.21 93.36 84.23 93.33C85.92 90.84 88.41 88.92 91.31 87.93C91.32 87.93 91.32 87.92 91.33 87.92C92.76 87.43 94.29 87.16 95.88 87.16C103.66 87.16 109.99 93.49 109.99 101.27C109.99 109.05 103.65 115.4 95.87 115.4C88.08 115.4 81.76 109.07 81.76 101.29C81.76 98.37 82.65 95.66 84.18 93.4ZM113.26 121.02C113.21 121.07 113.16 121.11 113.11 121.16C113.07 121.19 113.02 121.24 112.94 121.3C112.86 121.37 112.75 121.47 112.62 121.58C112.59 121.6 112.55 121.63 112.52 121.65C110.83 122.99 106.02 126.3 99.53 125.99C88.39 125.48 79.6 114.71 79.6 106.07C79.6 105.64 79.62 105.21 79.64 104.78C81.24 112.27 87.9 117.88 95.87 117.88C105.03 117.88 112.47 110.45 112.47 101.28C112.47 94.22 108.06 88.19 101.84 85.79C105.41 84.99 109.04 83.11 111.88 80.39C118.07 85.25 122.06 92.81 122.06 101.28C122.06 102.92 121.91 104.52 121.63 106.07C120.56 111.96 117.53 117.17 113.26 121.02Z" fill="white"/>
</g>
<defs>
<clipPath id="clip0">
<rect width="192" height="192" fill="white"/>
</clipPath>
</defs>
</svg>
